material/.icons/material/flag-remove-outline.svg

<svg xmlns="http://www.w3.org/2000/svg" viewBox="0 0 24 24"><path d="M13 16l-.4-2H7v7H5V4h9l.4 2H20v7.09c-.33-.05-.66-.09-1-.09-.34 0-.67.04-1 .09V8h-5.24l-.4-2H7v6h7.24l.4 2h1.05c-.77.5-1.42 1.2-1.88 2H13m8.12-.54L19 17.59l-2.12-2.13-1.41 1.42L17.59 19l-2.12 2.12 1.41 1.42L19 20.41l2.12 2.13 1.42-1.42L20.41 19l2.13-2.12-1.42-1.42z"/></svg>

<?xml version="1.0" encoding="UTF-8"?><!DOCTYPE svg PUBLIC "-//W3C//DTD SVG 1.1//EN" "http://www.w3.org/Graphics/SVG/1.1/DTD/svg11.dtd"><svg xmlns="http://www.w3.org/2000/svg" xmlns:xlink="http://www.w3.org/1999/xlink" version="1.1" id="mdi-flag-remove-outline" width="24" height="24" viewBox="0 0 24 24"><path d="M13 16L12.6 14H7V21H5V4H14L14.4 6H20V13.09C19.67 13.04 19.34 13 19 13C18.66 13 18.33 13.04 18 13.09V8H12.76L12.36 6H7V12H14.24L14.64 14H15.69C14.92 14.5 14.27 15.2 13.81 16H13M21.12 15.46L19 17.59L16.88 15.46L15.47 16.88L17.59 19L15.47 21.12L16.88 22.54L19 20.41L21.12 22.54L22.54 21.12L20.41 19L22.54 16.88L21.12 15.46Z" /></svg>
